X: 4430
M: 2/4
L: 1/16
K: F
(3(dcA) |\
[1 E2d2c3B | A2c2 z2 :|[1 E2d2c3E | F6 H|:[K:=B]\
[K:C] GA |\
[1 c2e2 zedc | Bg^fe dc'ba | g2g2g2 :|\
[2 c2 c'4 GA | Bcde fgab | "_D.C."c'6 |:\
[K:Bb] "Trio."(3(FGF) |\
c2d2c3G | c6 ^c2 |\
d2e2d2c2 | B2A2 G4 | c4 c4 | c6 (3(FGF) |\
f2g2 f2ed | e2d2 e2ce | dBFd c2A2 | "_D.C."B6 :|


